build-source/logos/canaldelasestrellas.default.svg

<svg xmlns="http://www.w3.org/2000/svg" viewBox="0 0 600 600"><g transform="matrix(-3.76256 0 0-3.76244 601.29 601.76)" fill="#bb2c28"><path d="m-51.19 118.57l-9.58-45.2-43.934 14.302 34.35-30.894-34.35-30.895 43.934 14.302 9.58-45.2z" transform="translate(131.2 23.254)"/><path d="m80.03 16.781v1.469l9.563 45.19 43.936-14.282-34.34 30.875 34.34 30.909-43.936-14.315-9.563 45.19v1.75c35.01 0 63.38-28.36 63.38-63.37 0-35.01-28.37-63.41-63.38-63.41"/><path d="m80.09.469c-44.03 0-79.75 35.718-79.75 79.75 0 44.03 35.718 79.72 79.75 79.72 44.04 0 79.72-35.69 79.72-79.72 0-44.03-35.68-79.75-79.72-79.75m0 8.75c39.2 0 70.966 31.801 70.966 71 0 39.2-31.77 70.971-70.966 70.971-39.2 0-71-31.77-71-70.971 0-39.2 31.801-71 71-71"/></g></svg>

<?xml version="1.0" encoding="UTF-8" standalone="no"?>
<!-- Created with Inkscape (http://www.inkscape.org/) -->

<svg
   xmlns:dc="http://purl.org/dc/elements/1.1/"
   xmlns:cc="http://creativecommons.org/ns#"
   xmlns:rdf="http://www.w3.org/1999/02/22-rdf-syntax-ns#"
   xmlns:svg="http://www.w3.org/2000/svg"
   xmlns="http://www.w3.org/2000/svg"
   version="1.1"
   width="600"
   height="600"
   id="svg2999">
  <metadata
     id="metadata3011">
    <rdf:RDF>
      <cc:Work
         rdf:about="">
        <dc:format>image/svg+xml</dc:format>
        <dc:type
           rdf:resource="http://purl.org/dc/dcmitype/StillImage" />
        <dc:title></dc:title>
      </cc:Work>
    </rdf:RDF>
  </metadata>
  <defs
     id="defs3009" />
  <g
     transform="matrix(-3.7625575,0,0,-3.7624396,601.29431,601.76365)"
     id="g3013">
    <path
       d="M -51.186,118.57 -60.766,73.372 -104.7,87.674 -70.346,56.78 -104.7,25.885 l 43.934,14.302 9.58,-45.1969 z"
       transform="translate(131.20338,23.254237)"
       id="path3001"
       style="fill:#bb2c28" />
    <path
       d="M 80.031,16.781 V 18.25 L 89.594,63.438 133.53,49.156 99.188,80.031 133.53,110.94 89.594,96.625 80.031,141.81 v 1.75 c 35.009,0 63.379,-28.36 63.379,-63.372 0,-35.01 -28.37,-63.407 -63.379,-63.407 z"
       id="path3003"
       style="fill:#bb2c28" />
    <path
       d="m 80.094,0.46875 c -44.032,0 -79.75,35.718 -79.75,79.75 0,44.031 35.718,79.721 79.75,79.721 44.036,0 79.716,-35.69 79.716,-79.721 0,-44.032 -35.68,-79.75 -79.716,-79.75 z m 0,8.75 c 39.196,0 70.966,31.801 70.966,71 0,39.201 -31.77,70.971 -70.966,70.971 -39.199,0 -71,-31.77 -71,-70.971 0,-39.199 31.801,-71 71,-71 z"
       id="path3005"
       style="fill:#bb2c28" />
  </g>
</svg>
